symbols/web/flip_to_back/materialsymbolsoutlined/flip_to_back_wght600_48px.svg

<svg xmlns="http://www.w3.org/2000/svg" height="48" width="48"><path d="M8.75 43.7q-1.6 0-2.775-1.175Q4.8 41.35 4.8 39.7V13.4h3.95v26.3H35.1v4Zm7.95-8.2q-1.5 0-2.625-1.1t-1.125-2.6h3.75Zm-3.75-8.1v-4.8h3.75v4.8Zm0-9.2v-4.8h3.75v4.8Zm0-9.2q0-1.5 1.125-2.625T16.7 5.25V9Zm8.15 26.5v-3.7h4.8v3.7Zm0-26.5V5.25h4.8V9Zm9.2 26.5v-3.7h4.8v3.7Zm0-26.5V5.25h4.8V9Zm9.2 26.5v-3.7h3.7q0 1.5-1.1 2.6t-2.6 1.1Zm0-8.1v-4.8h3.7v4.8Zm0-9.2v-4.8h3.7v4.8Zm0-9.2V5.25q1.5 0 2.6 1.125T43.2 9Z"/></svg>

<svg xmlns="http://www.w3.org/2000/svg" height="48" width="48"><path d="M12.95 18.2V13.4H16.7V18.2ZM12.95 27.4V22.6H16.7V27.4ZM12.95 9Q12.95 7.5 14.075 6.375Q15.2 5.25 16.7 5.25V9ZM21.1 35.5V31.8H25.9V35.5ZM39.5 9V5.25Q41 5.25 42.1 6.375Q43.2 7.5 43.2 9ZM21.1 9V5.25H25.9V9ZM16.7 35.5Q15.2 35.5 14.075 34.4Q12.95 33.3 12.95 31.8H16.7ZM39.5 27.4V22.6H43.2V27.4ZM39.5 18.2V13.4H43.2V18.2ZM39.5 35.5V31.8H43.2Q43.2 33.3 42.1 34.4Q41 35.5 39.5 35.5ZM8.75 43.7Q7.15 43.7 5.975 42.525Q4.8 41.35 4.8 39.7V13.4H8.75V39.7Q8.75 39.7 8.75 39.7Q8.75 39.7 8.75 39.7H35.1V43.7ZM30.3 9V5.25H35.1V9ZM30.3 35.5V31.8H35.1V35.5Z"/></svg>
